public/star.svg

<svg width="10" height="10" viewBox="0 0 10 10" fill="none" xmlns="http://www.w3.org/2000/svg">
<path fill-rule="evenodd" clip-rule="evenodd" d="M3.52575 2.54991C3.91053 1.62852 4.64229 0.000366211 5.00871 0.000366211C5.54085 -0.000189345 6.70647 3.15926 6.70647 3.15926C6.70647 3.15926 7.78552 3.2587 8.65763 3.36037C9.12061 3.41426 9.94731 3.49648 9.99905 3.76592C10.0101 3.82426 9.94362 4.06259 9.82273 4.2287C9.31065 4.93426 7.9819 6.44592 7.9819 6.44592C7.9819 6.44592 8.05476 7.16814 8.11969 7.95814C8.16139 8.46926 8.27384 9.50481 8.23319 9.68981C8.18884 9.8937 8.10913 9.94925 8.02625 9.98148C7.8098 10.0648 7.30723 9.74092 6.7202 9.44426C5.92041 9.03926 5.02191 8.60648 5.02191 8.60648C5.02191 8.60648 4.42907 8.9337 3.72642 9.25315C2.97573 9.59426 2.21554 10.1565 1.89827 9.9587C1.7003 9.83481 1.84706 8.86926 1.92308 8.00981C1.99435 7.19926 2.05611 6.4587 2.05611 6.4587C2.05611 6.4587 1.61583 5.91314 1.10323 5.32981C0.549456 4.69926 -0.125741 4.0187 0.02049 3.7687C0.130823 3.57981 0.63445 3.4787 1.48016 3.36814C2.37866 3.25037 3.27611 3.16703 3.27611 3.16703C3.27611 3.16703 3.37392 2.9135 3.52575 2.54991Z" fill="#384564"/>
</svg>

<svg xmlns="http://www.w3.org/2000/svg" fill="none" viewBox="0 0 10 10"><path fill="#384564" fill-rule="evenodd" d="M3.526 2.55C3.91 1.629 4.642 0 5.009 0c.532 0 1.697 3.16 1.697 3.16s1.08.099 1.952.2c.463.054 1.29.136 1.341.406.011.058-.055.297-.176.463-.512.705-1.841 2.217-1.841 2.217s.073.722.138 1.512c.041.511.154 1.547.113 1.732-.044.204-.124.26-.207.291-.216.084-.719-.24-1.306-.537-.8-.405-1.698-.838-1.698-.838s-.593.328-1.296.647c-.75.341-1.51.903-1.828.706-.198-.124-.05-1.09.025-1.95.071-.81.133-1.55.133-1.55s-.44-.546-.953-1.13C.55 4.7-.126 4.02.02 3.77c.11-.19.614-.29 1.46-.4.899-.119 1.796-.202 1.796-.202s.098-.253.25-.617Z" clip-rule="evenodd"/></svg>
